.local/share/icons/Gruvbox-Plus-Dark/panel/24/weather-showers-scattered.svg

<svg xmlns="http://www.w3.org/2000/svg" width="24" height="24" version="1.1">
 <defs>
  <style id="current-color-scheme" type="text/css">
   .ColorScheme-Text { color:#ebdbb2; } .ColorScheme-Highlight { color:#458588; }
  </style>
 </defs>
 <path style="fill:currentColor" class="ColorScheme-Text" d="m 12,4.0039062 c -2.07107,0 -3.83471,1.2679201 -4.59375,3.0625 C 5.47842,7.3530063 4,8.9963263 4,11.003906 c 0,1.933 1.36477,3.53327 3.1875,3.90625 0.76412,-0.77854 1.52122,-1.56145 2.3125,-2.3125 0.57304,0.53801 1.13306,1.09923 1.6875,1.65625 0.24292,-0.069 0.38252,-0.84617 0.71875,-1.09375 0.85427,-0.86808 1.70924,-1.72483 2.59375,-2.5625 0.66629,0.62449 1.29148,1.26106 1.9375,1.90625 0.59794,0.57143 1.22758,1.20365 1.4375,2.03125 0.016,0.0511 0.01805,0.10465 0.03125,0.15625 C 19.1415,14.150916 20,12.938456 20,11.503906 20,9.707366 18.64921,8.2352063 16.90625,8.0351562 16.45168,5.7417662 14.42687,4.0039062 12,4.0039062 Z M 14.5,12 14.15625,12.34375 12.75,13.75 C 12.29685,14.20315 12,14.8126 12,15.5 c 0,1.37479 1.12521,2.5 2.5,2.5 1.37479,0 2.5,-1.12521 2.5,-2.5 0,-0.6874 -0.29685,-1.29685 -0.75,-1.75 L 14.84375,12.34375 14.5,12 Z M 9.5,14 9.15625,14.34375 7.75,15.75 C 7.29685,16.20315 7,16.8126 7,17.5 7,18.87479 8.12521,20 9.5,20 10.87479,20 12,18.87479 12,17.5 12,16.8126 11.70315,16.20315 11.25,15.75 L 9.84375,14.34375 9.5,14 Z"/>
</svg>

<svg width="24" height="24" version="1.1" xmlns="http://www.w3.org/2000/svg">
  <defs>
    <style id="current-color-scheme" type="text/css">.ColorScheme-Text { color:#ebdbb2; } .ColorScheme-Highlight { color:#458588; } .ColorScheme-NeutralText { color:#fe8019; } .ColorScheme-PositiveText { color:#689d6a; } .ColorScheme-NegativeText { color:#fb4934; }</style>
  </defs>
  <path class="ColorScheme-Text" d="m12 4.004c-2.071 0-3.835 1.268-4.594 3.062-1.928 0.2866-3.406 1.93-3.406 3.937 0 1.933 1.365 3.533 3.188 3.906 0.7641-0.7785 1.521-1.561 2.312-2.312 0.573 0.538 1.133 1.099 1.688 1.656 0.2429-0.069 0.3825-0.8462 0.7188-1.094 0.8543-0.8681 1.709-1.725 2.594-2.562 0.6663 0.6245 1.291 1.261 1.938 1.906 0.5979 0.5714 1.228 1.204 1.438 2.031 0.016 0.0511 0.01805 0.1046 0.03125 0.1562 1.235-0.5405 2.094-1.753 2.094-3.188 0-1.797-1.351-3.269-3.094-3.469-0.4546-2.293-2.479-4.031-4.906-4.031zm2.5 7.996-1.75 1.75c-0.4532 0.4532-0.75 1.063-0.75 1.75 0 1.375 1.125 2.5 2.5 2.5s2.5-1.125 2.5-2.5c0-0.6874-0.2968-1.297-0.75-1.75l-1.75-1.75zm-5 2-1.75 1.75c-0.4532 0.4532-0.75 1.063-0.75 1.75 0 1.375 1.125 2.5 2.5 2.5s2.5-1.125 2.5-2.5c0-0.6874-0.2968-1.297-0.75-1.75l-1.75-1.75z" fill="currentColor"/>
</svg>
